src/assets/images/homepage/home/partner_logo_8.svg

<svg fill="none" height="89" viewBox="0 0 89 89" width="89" xmlns="http://www.w3.org/2000/svg" xmlns:xlink="http://www.w3.org/1999/xlink"><clipPath id="a"><path d="m24.3296 16h40v56h-40z"/></clipPath><circle cx="44.2225" cy="44.2225" fill="#31cb9e" r="44.2225"/><g clip-path="url(#a)" fill="#fff"><path d="m41.3921 43.9944 21.2582 11.9906c.7365.4172 1.6794-.1098 1.6794-.9443v-22.0926c0-.8345-.9318-1.367-1.6794-.9443z"/><path d="m61.4058 26.8323-14.1052-10.6071c-.6528-.4831-1.6013-.1427-1.7798.6424l-5.1556 23.6298 20.929-11.8314c.7031-.4008.7644-1.3506.1116-1.8282z"/><path d="m47.3009 71.7745 14.1443-10.6236c.636-.4831.5691-1.4274-.1116-1.8282l-20.9625-11.8149 5.1723 23.6298c.145.7851 1.0936 1.1255 1.7631.6424z"/><path d="m35.9463 43.994 5.5628-25.458c.212-.9937-.9485-1.7349-1.7799-1.0925l-14.2391 10.7058c-.7365.5436-1.1605 1.411-1.1605 2.3114v27.1106c0 .9004.424 1.7678 1.1605 2.3114l14.2391 10.6894c.8146.6094 1.9919-.1098 1.7799-1.0926l-5.5628-25.4909z"/></g></svg>

<svg width="89" height="89" viewBox="0 0 89 89" fill="none" xmlns="http://www.w3.org/2000/svg">
<circle cx="44.2225" cy="44.2225" r="44.2225" fill="#31CB9E"/>
<g clip-path="url(#clip0_5626_12361)">
<path d="M41.3921 43.9944L62.6503 55.985C63.3868 56.4022 64.3297 55.8752 64.3297 55.0407V32.9481C64.3297 32.1136 63.3979 31.5811 62.6503 32.0038L41.3921 43.9944Z" fill="white"/>
<path d="M61.4058 26.8323L47.3006 16.2252C46.6478 15.7421 45.6993 16.0825 45.5208 16.8676L40.3652 40.4974L61.2942 28.666C61.9973 28.2652 62.0586 27.3154 61.4058 26.8378V26.8323Z" fill="white"/>
<path d="M47.3009 71.7745L61.4452 61.1509C62.0812 60.6678 62.0143 59.7235 61.3336 59.3227L40.3711 47.5078L45.5434 71.1376C45.6884 71.9227 46.637 72.2631 47.3065 71.78L47.3009 71.7745Z" fill="white"/>
<path d="M35.9463 43.994L41.5091 18.536C41.7211 17.5423 40.5606 16.8011 39.7292 17.4435L25.4901 28.1493C24.7536 28.6929 24.3296 29.5603 24.3296 30.4607V57.5713C24.3296 58.4717 24.7536 59.3391 25.4901 59.8827L39.7292 70.5721C40.5438 71.1815 41.7211 70.4623 41.5091 69.4795L35.9463 43.9886V43.994Z" fill="white"/>
</g>
<defs>
<clipPath id="clip0_5626_12361">
<rect width="40" height="56" fill="white" transform="translate(24.3296 16)"/>
</clipPath>
</defs>
</svg>
